X: 24280
T: Lost And Found, The
R: jig
M: 6/8
K: Gmajor
|:G3 dGG|eGG dBA|FGG dGG|edB AFA|
G3 dGG|edB def|gfe dBA|Bee dBA:|
|:g3 bge|f2g afd|g2a bge|edB GB/c/d|
g2a bge|f3 a3|bag agf|egf edB:|

